ALTDEU
CUT[Ringeltanz]
REG[Europa, Mitteleuropa, Deutschland]
KEY[A0286  04  F 3/2]
MEL[1_  1__1_  -7_.12_  1_-6__  -5__1_  1_-6__  -5__
    -5_  2__2_  3__2_  1_-7_-6_  -7__0_
    -5_-6_-7_  1__0_  -5_-6_-7_  1__ //] >>
FCT[Romanze, Ballade, Lied]
CMT[Geistliche Ringeltentze 1550 No. 1]
